src/assets/aragon-logo.svg

<svg width="120" height="33" viewBox="0 0 120 33" fill="none" xmlns="http://www.w3.org/2000/svg">
<path fill-rule="evenodd" clip-rule="evenodd" d="M63.2035 11.4483C62.4122 10.6619 61.199 10.1973 59.6516 10.1973H54.1655V22.7076H56.3283L56.328 18.8549L56.3263 18.8559V16.066L56.328 16.0662L56.3283 12.1989H59.4758C61.0744 12.1989 62.0034 12.8971 62.025 14.2244L62.0254 14.3078L62.0239 14.3948C61.9803 15.6307 61.0055 16.3988 59.4934 16.3988L58.5627 16.3985L57.4486 18.3465L59.0362 18.3469L62.0606 22.7076H64.6278L61.3045 17.9716L61.415 17.9379C63.0439 17.4229 64.1975 16.2204 64.2229 14.2494L64.2233 14.147C64.2233 13.0568 63.8541 12.1453 63.2035 11.4483ZM91.382 11.8685C90.1185 10.796 88.7847 10.1982 86.6612 10.1982C82.9811 10.1982 80.3828 13.0538 80.3267 16.4508L80.3258 16.5981C80.3258 20.1849 82.8529 22.9277 86.6963 22.9277C88.8724 22.9277 90.5923 22.0486 91.8208 21.0113V15.8421L89.7324 17.741V20.0267C88.9777 20.5893 87.9423 20.9585 86.7665 20.9585C84.2938 20.9585 82.6389 19.1492 82.5908 16.6742L82.5897 16.5278C82.5897 14.1718 84.3271 12.2026 86.5734 12.2026C88.1178 12.2026 89.0655 12.6949 90.0131 13.5037L91.382 11.8685ZM106.965 16.5278C106.965 13.0641 104.333 10.1982 100.56 10.1982C96.8271 10.1982 94.1765 13.0545 94.1199 16.452L94.119 16.5981C94.119 20.0618 96.7515 22.9277 100.525 22.9277C104.257 22.9277 106.908 20.0715 106.964 16.674L106.965 16.5278ZM51.5612 22.7167L46.1559 10.3213H44.1553L38.75 22.7167L40.9081 22.7166L45.1205 12.9059L49.3638 22.7166L51.5612 22.7167ZM79.4019 22.7167L73.9967 10.3213H71.996L66.5907 22.7167L68.7489 22.7166L72.9612 12.9059L77.2045 22.7166L79.4019 22.7167ZM117.876 18.919L111.295 10.4092H109.295V22.7167H111.418V13.9608L118.192 22.7167H120V10.4092H117.876V18.919ZM96.3829 16.5278C96.3829 14.1366 98.0852 12.2026 100.525 12.2026C102.945 12.2026 104.651 14.1143 104.7 16.4578L104.701 16.5981C104.701 18.9893 102.999 20.9234 100.56 20.9234C98.1389 20.9234 96.4337 19.0116 96.384 16.6682L96.3829 16.5278Z" fill="url(#paint0_linear)"/>
<ellipse cx="16.3159" cy="16.3159" rx="16.3159" ry="16.3159" fill="url(#paint1_linear)" fill-opacity="0.05"/>
<path d="M29.0661 15.2359C29.1793 12.8851 27.5374 11.3256 25.6844 10.2549L24.48 17.3307C25.3138 17.2841 25.7215 17.6007 25.8697 17.7496C26.055 17.9358 26.5182 18.4945 25.9623 19.3789C27.1205 19.1927 28.9293 18.0755 29.0661 15.2359Z" fill="url(#paint2_linear)"/>
<path fill-rule="evenodd" clip-rule="evenodd" d="M13.2675 6.99852L11.8315 5.55543C13.9933 5.29164 19.6973 5.62991 25.2191 9.09333C25.3118 9.46574 25.2191 10.0244 25.2191 10.0244L25.6824 10.2571C26.0838 10.8312 26.7663 12.4636 26.2846 14.4002C25.8028 16.3367 24.9721 17.1622 24.6169 17.3329C23.8757 17.3329 22.6157 17.7612 22.2081 19.6605C21.8004 21.5598 21.0191 21.9725 20.6794 21.9415L12.5263 22.0346L7.15274 18.8691L6.36523 12.3054L7.89393 10.2571L10.627 8.02265L12.5727 7.23128L13.2675 6.99852ZM22.8968 9.70928C22.5373 10.0838 22.2011 10.2634 22.1052 10.3121C20.0058 9.86559 19.2495 8.77952 19.2495 8.77952C21.2297 8.7673 23.017 9.23829 24.3246 10.035C24.3246 10.035 23.6167 9.80565 22.8968 9.70928Z" fill="url(#paint3_linear)"/>
<path fill-rule="evenodd" clip-rule="evenodd" d="M22.1352 19.6616C20.696 20.3679 18.9898 20.7768 17.1602 20.7768C12.0179 20.7768 7.84912 17.5463 7.84912 13.5613C7.84912 10.6167 10.1252 8.08413 13.3884 6.9624C7.18401 7.31845 2.19775 12.3023 2.19775 18.452C2.19775 25.5485 8.52345 31.4121 16.3266 31.4121C22.1534 31.4121 27.0036 28.0338 29.5397 23.5139C26.0504 24.2986 21.92 22.8069 22.1352 19.6616Z" fill="url(#paint4_linear)"/>
<defs>
<linearGradient id="paint0_linear" x1="16.4785" y1="5.48018" x2="32.2826" y2="53.8792" gradientUnits="userSpaceOnUse">
<stop stop-color="#01E8F7"/>
<stop offset="1" stop-color="#00B3EC"/>
</linearGradient>
<linearGradient id="paint1_linear" x1="16.3159" y1="11.4183" x2="16.3159" y2="33.0608" gradientUnits="userSpaceOnUse">
<stop stop-color="#01E8F8"/>
<stop offset="1" stop-color="#01E8F8" stop-opacity="0"/>
</linearGradient>
<linearGradient id="paint2_linear" x1="26.7954" y1="12.2922" x2="27.5219" y2="20.9453" gradientUnits="userSpaceOnUse">
<stop stop-color="#01E8F7"/>
<stop offset="1" stop-color="#00C2FF"/>
</linearGradient>
<linearGradient id="paint3_linear" x1="12.8639" y1="7.2602" x2="21.2691" y2="20.6003" gradientUnits="userSpaceOnUse">
<stop stop-color="#01E8F7"/>
<stop offset="1" stop-color="#00B3EC"/>
</linearGradient>
<linearGradient id="paint4_linear" x1="15.9857" y1="13.8778" x2="16.7361" y2="35.4007" gradientUnits="userSpaceOnUse">
<stop stop-color="#01E8F7"/>
<stop offset="1" stop-color="#00C2FF"/>
</linearGradient>
</defs>
</svg>

<svg width="120" height="33" fill="none" xmlns="http://www.w3.org/2000/svg"><path fill-rule="evenodd" clip-rule="evenodd" d="M63.203 11.448c-.79-.786-2.004-1.25-3.551-1.25h-5.486v12.51h2.162v-3.853h-.002v-2.789h.002V12.2h3.148c1.598 0 2.527.698 2.549 2.025v.084l-.001.087c-.044 1.236-1.019 2.004-2.53 2.004h-.931l-1.114 1.947h1.587l3.025 4.362h2.567l-3.324-4.736.111-.034c1.629-.515 2.783-1.718 2.808-3.689v-.102c0-1.09-.369-2.002-1.02-2.699zm28.179.42c-1.264-1.072-2.597-1.67-4.72-1.67-3.68 0-6.28 2.856-6.335 6.253l-.001.147c0 3.587 2.527 6.33 6.37 6.33 2.176 0 3.896-.88 5.125-1.917v-5.169l-2.089 1.899v2.286c-.754.562-1.79.931-2.966.931-2.472 0-4.127-1.809-4.175-4.284l-.001-.146c0-2.356 1.737-4.325 3.983-4.325 1.545 0 2.493.492 3.44 1.3l1.369-1.635zm15.583 4.66c0-3.464-2.632-6.33-6.405-6.33-3.733 0-6.383 2.857-6.44 6.254l-.001.146c0 3.464 2.632 6.33 6.406 6.33 3.732 0 6.383-2.857 6.439-6.254l.001-.146zm-55.404 6.189L46.156 10.32h-2L38.75 22.717h2.158l4.212-9.811 4.244 9.81h2.197zm27.84 0L73.998 10.32h-2.001l-5.405 12.396h2.158l4.212-9.811 4.243 9.81h2.198zm38.475-3.798l-6.581-8.51h-2v12.308h2.123V13.96l6.774 8.756H120V10.409h-2.124v8.51zm-21.493-2.391c0-2.391 1.702-4.325 4.142-4.325 2.42 0 4.126 1.911 4.175 4.255l.001.14c0 2.391-1.702 4.325-4.141 4.325-2.421 0-4.126-1.911-4.176-4.255l-.001-.14z" fill="url(#paint0_linear)"/><circle cx="16.316" cy="16.316" fill="url(#paint1_linear)" fill-opacity=".05" r="16.316"/><path d="M29.066 15.236c.113-2.35-1.529-3.91-3.382-4.981L24.48 17.33c.834-.047 1.241.27 1.39.419.185.186.648.744.092 1.629 1.159-.186 2.967-1.303 3.104-4.143z" fill="url(#paint2_linear)"/><path fill-rule="evenodd" clip-rule="evenodd" d="M13.268 6.999L11.83 5.555c2.162-.263 7.866.075 13.388 3.538.093.373 0 .931 0 .931l.463.233c.402.574 1.084 2.207.603 4.143-.482 1.937-1.313 2.762-1.668 2.933-.741 0-2.001.428-2.409 2.328-.408 1.899-1.189 2.311-1.529 2.28l-8.153.094-5.373-3.166-.788-6.564 1.529-2.048 2.733-2.234 1.946-.792.694-.232zm9.629 2.71c-.36.375-.696.554-.792.603-2.1-.446-2.855-1.532-2.855-1.532 1.98-.013 3.767.458 5.075 1.255 0 0-.708-.23-1.428-.326z" fill="url(#paint3_linear)"/><path fill-rule="evenodd" clip-rule="evenodd" d="M22.135 19.662c-1.439.706-3.145 1.115-4.975 1.115-5.142 0-9.31-3.23-9.31-7.216 0-2.944 2.275-5.477 5.538-6.599-6.204.356-11.19 5.34-11.19 11.49 0 7.096 6.325 12.96 14.129 12.96 5.826 0 10.677-3.378 13.213-7.898-3.49.785-7.62-.707-7.405-3.852z" fill="url(#paint4_linear)"/><defs><linearGradient id="paint0_linear" x1="16.479" y1="5.48" x2="32.283" y2="53.879" gradientUnits="userSpaceOnUse"><stop stop-color="#01E8F7"/><stop offset="1" stop-color="#00B3EC"/></linearGradient><linearGradient id="paint1_linear" x1="16.316" y1="11.418" x2="16.316" y2="33.061" gradientUnits="userSpaceOnUse"><stop stop-color="#01E8F8"/><stop offset="1" stop-color="#01E8F8" stop-opacity="0"/></linearGradient><linearGradient id="paint2_linear" x1="26.795" y1="12.292" x2="27.522" y2="20.945" gradientUnits="userSpaceOnUse"><stop stop-color="#01E8F7"/><stop offset="1" stop-color="#00C2FF"/></linearGradient><linearGradient id="paint3_linear" x1="12.864" y1="7.26" x2="21.269" y2="20.6" gradientUnits="userSpaceOnUse"><stop stop-color="#01E8F7"/><stop offset="1" stop-color="#00B3EC"/></linearGradient><linearGradient id="paint4_linear" x1="15.986" y1="13.878" x2="16.736" y2="35.401" gradientUnits="userSpaceOnUse"><stop stop-color="#01E8F7"/><stop offset="1" stop-color="#00C2FF"/></linearGradient></defs></svg>
